X:1
T:Title
%%score ( 1 2 ) 3
L:1/8
Q:1/4=100
M:12/8
K:F
V:1 treble nm="Drawbar Organ, Soprano"
V:2 treble 
V:3 bass nm="Church Organ, Riches of Grace, E. Lorenz"
V:1
 C[CF][CG] [FA]2 [FA] [FA]2 [FA] [FA]3 | [Ac][GB][FA] [EG]6- [EG]3/2 z/ z | %2
w: By~Edmund~Simon~Lorenz * * * * * * *||
 C[CE][EG] [GB]2 [GB] [GB]2 [GB] [GB]3 | [Bd][Ac][GB] [FA]6- [FA]3/2 z/ z | %4
w: ||
 F[EG][FA] [Ac]2 [Ac] [Ac]2 [Ac] [Ac]3 | F[FA][Fc] [Fd]2 [Fd] [Fd]2 [Fd] [Fd]3 | %6
w: ||
 [Ff][Fe][Fd] [Fc]2 [Fc] [Fc]2 [Fc] [Fc]3 | [Ec][EB][EG] F6- F3/2 z/ z | z3 B6- B3/2 z/ z | %9
w: |||
 [df][ce][Bd] [Ac]6- [Ac]3/2 z/ z | F[EG][FA] [EG]6- [EG]3/2 z/ [FA] | %11
w: ||
 [Ec][GB][EG] [FA]6- [FA]3/2 z/ z | F[EG][_EA] [DB]6- [DB]3/2 z/ [Bd] | %13
w: ||
 [df][ce][Bd] [Ac]6- [Ac]3/2 z/ z | F[EG][FA] [EG]6- [EG]3/2 z/ z | [Ec][EB][EG] F6- F3/2 z/ z |] %16
w: |||
V:2
 x12 | x12 | x12 | x12 | x12 | x12 | x12 | x12 | F[EG][_EA] D6 F2 [Bd] | x12 | x12 | x12 | x12 | %13
 x12 | x12 | x12 |] %16
V:3
 [F,A,][F,A,][F,B,] [F,C]2 [F,C] [F,C]2 [F,C] [F,C]3 | [F,C][F,C][F,C] [C,C]6- [C,C]3/2 z/ z | %2
 [C,E,][C,G,][C,C] [C,C]2 [C,C] [C,C]2 [C,C] [C,C]3 | [C,C][C,C][C,C] [F,C]6- [F,C]3/2 z/ z | %4
 [F,A,][F,B,][F,C] [F,C]2 [F,C] [F,C]2 [F,C] [F,C]3 | [F,A,][F,C][F,A,] B,2 B, B,2 B, B,3 | %6
 [B,D][B,C]B, [F,A,]2 [F,A,] [F,A,]2 [F,A,] [F,A,]3 | [C,G,][C,G,][C,B,] [F,A,]6- [F,A,]3/2 z/ z | %8
 z6 B,B,B, .[B,D]3 | z3 z2 [F,C] [F,F][F,C][F,C] .[F,C]3 | z6 [C,C][C,C][C,C] [C,C]3 | %11
 z3 z2 [F,C] [F,C][F,C][F,C] .[F,C]3 | z6 B,B,B, .[B,D]3 | z3 z2 [F,C] [F,F][F,C][F,C] .[F,C]3 | %14
 z6 [C,C][C,C][C,C] .[C,C]3 | [C,G,][C,G,][C,B,] [F,A,]6- [F,A,]3/2 z/ z |] %16

